X: 152
T: Stars That Shine So Silver Bright
C: music: C. Gramm
C: words: G. Berthold
Q: "Moderato."
%R: air, march
B: "The Everyday Song Book", 1927
F: http://www.library.pitt.edu/happybirthday/pdf/The_Everyday_Song_Book.pdf
Z: 2017 John Chambers <jc:trillian.mit.edu>
M: 4/4
L: 1/4
K: D
% - - - - - - - - - - - - - - - - - - - - - - - - - - - - -
[|\
F> G A B | A> G F2 | E> F G A  |
w: 1.~Stars that shine so sil-ver bright  Through the long hours
w: 2.~Peace is yours, and bless-ed calm,  Sweet as ech-oes
w: 3.~Us that peace and calm-ness lend,   Pity-ing stars, that
%
G F E2 | A> F d A | f> e d2 | d B
w: of the night, Lov-ing eyes you seem to be,         Watch-ing
w: of that psalm Glim-m'ring choirs of star-lets sung When the
w: o'er us bend; Stead-fast may we be and true,       Our un-
%
A G | F G A z | d B A G | F E D Hz |]
w: o'er us ten-der-ly,           Watch-ing o'er us ten-der-ly.
w: heav'ns and earth were young, When the heav'ns and earth were young.
w: swerv-ing way pur-sue,        Our un-swerv-ing way pur-sue.
% - - - - - - - - - - - - - - - - - - - - - - - - - - - - -
